!!!COM: Haydn, Franz Joseph
!!!OTL: Quartet 
!!!ONM: Opus 77, No. 1
!!!OMV: 1
!!!CDT: 1732/3/31/-1809/5/31/
!!!OCY: \O3sterreich
**kern	**kern	**kern	**kern
*clefF4	*clefC3	*clefF	*clefF
*k[f#]	*k[f#]	*k[f#]	*k[f#]
*G:	*G:	*G:	*G:
*M4/4	*M4/4	*M4/4	*M4/4
=1	=1	=1	=1
4GG	4B 4D	4G 4g	4G 4g
4G	4B	4d	2r
4G	4B	4d	.
4G	4B	4d	8.dd
.	.	.	16b
=2	=2	=2	=2
4G	4B	4d	4g
4G	4B	4d	2r
4G	4B	4d	.
4G	4B	4d	8.gg
.	.	.	16ff#
=3	=3	=3	=3
4G	4c	4e	8ee
.	.	.	8r
4G	4c	4e	8.ee
.	.	.	16dd#
4G	4c	4e	8ee
.	.	.	8r
4G	4c	4e	8.ee
.	.	.	16dd#
=4	=4	=4	=4
4G	4c 4e	8e	4ee
.	.	8r	.
4G	4c 4e	8.a	2.r
.	.	16g#	.
4G	4e 4c	8a	.
.	.	8r	.
4G	4e 4c	8.a	.
.	.	16g#	.
=5	=5	=5	=5
4FF#	4D 4c	4a	4aa 4cc 4d
4F#	4A	4c	2r
4F#	4A	4c	.
4F#	4A	4c	8.ee
.	.	.	16cc
=6	=6	=6	=6
4F#	4A	4c	4a
4F#	4A	4c	2r
4F#	4A	4c	.
4F#	4A	4c	8.aa
.	.	.	16ff#
=7	=7	=7	=7
4F#	4A	4c	8dd
.	.	.	8r
4F#	4A	4c	8.dd
.	.	.	16cc#
4F#	4A	4c	8dd
.	.	.	8r
4F#	4A	4c	8.dd
.	.	.	16cc#
=8	=8	=8	=8
4F#	4A	4c	4dd
4F#	4A	8.c	2r
.	.	16B	.
4F#	4A	4c	.
4f#	8.a	4cc	8.ddd
.	16dd	.	16aa
=9	=9	=9	=9
4g	4dd	4b	4bb
4r	4r	4gg	4bb
4r	4r	4gg	4bb
4d#	8.f#	4a	8.bb
.	16b	.	16ff#
=10	=10	=10	=10
4e	4b	4g	4gg
4r	4r	4ee	4gg
4r	4r	4ee	4gg
4B	8.d	[4g	8.ff
.	16g	.	16dd#
=11	=11	=11	=11
4c	4g	4g]	4ee
2.r	2.r	4ee	4gg
.	.	4ee	4gg
.	.	4ee	4gg
=12	=12	=12	=12
4r	4r	2.ee	2.gg
4AA#	4A#	.	.
4BB	4B	.	.
4C	4c	16dd	16ff#
.	.	16cc	16ee
.	.	16b	16dd
.	.	16a	16cc
=13	=13	=13	=13
1D	2.d	4g	4b
.	.	4b	4dd
.	.	4a	4cc
.	4A	4c	4f#
=14	=14	=14	=14
4GG	4B 4D	4B 4g	4G 4g
4G	4B	4d	2r
4G	4B	4d	.
4G	4B	4d	8.dd
.	.	.	16b
=15	=15	=15	=15
4G	4B	4d	4g
8.GG	4B	4d	2r
16FF#	.	.	.
4GG	4B	4d	.
4GG	4B	4d	8.gg
.	.	.	16ff#
=16	=16	=16	=16
4GG	4B-	4c#	8ee
.	.	.	8r
4G	4B-	4c#	8.ee
.	.	.	16dd#
4G	4B-	4c#	8ee
.	.	.	8r
4G	4B-	4c#	8.ee
.	.	.	16dd#
=17	=17	=17	=17
4G	4B-	4c#	4ee
8.GG	4B-	4c#	2r
16FF#	.	.	.
4GG	4B-	4c#	.
4GG	4G	4c#	8.gg
.	.	.	16ff#
=18	=18	=18	=18
4GG	4A	4c#	8ee
.	.	.	8r
4G	4A	4c#	8.ee
.	.	.	16dd#
4G	4A	4c#	8ee
.	.	.	8r
4G	4A	8.c#	8.aa
.	.	16e	16cc#
=19	=19	=19	=19
4F#	4A	4d	12dd
.	.	.	12a
.	.	.	12f#
4F#	4a	4f#	12d
.	.	.	12f#
.	.	.	12a
4F#	4f#	12d	4dd
.	.	12f#	.
.	.	12a	.
4F#	4d	12dd	4r
.	.	12a	.
.	.	12f#	.
=20	=20	=20	=20
4C#	4A	4e	12gg
.	.	.	12ee
.	.	.	12cc#
4C#	4a	4g	12a
.	.	.	12cc#
.	.	.	12ee
4C#	4g	12a	4gg
.	.	12cc#	.
.	.	12ee	.
4C#	4e	12gg	4r
.	.	12ee	.
.	.	12gg	.
=21	=21	=21	=21
2D	4d	4ff	12ff
.	.	.	12dd
.	.	.	12a
.	2f 2d	4a	12f
.	.	.	12a
.	.	.	12dd
2C	.	12ff	12ff
.	.	12dd	12ff
.	.	12a	12ff
.	[4f 4d	12f	12ff
.	.	12a	12ff
.	.	12dd	12ff
=22	=22	=22	=22
2BB-	4f 4d]	12ff	12ff
.	.	12ff	12dd
.	.	12ff	12b-
.	2f 2d	12ff	12f
.	.	12ff	12b-
.	.	12ff	12dd
2AA	.	12ff	12ff
.	.	12dd	12ff
.	.	12a	12ff
.	[4f 4d	12f	12ff
.	.	12a	12ff
.	.	12dd	12ff
=23	=23	=23	=23
1GG#	4f 4d]	12ff	12G#
.	.	12ff	12B
.	.	12ff	12d
.	2f 2d	12ff	12f
.	.	12ff	12g#
.	.	12ff	12b
.	.	12f	12dd
.	.	12e	12cc#
.	.	12f	12dd
.	4G#	12d	12ff
.	.	12e	12ee
.	.	12f	12dd
=24	=24	=24	=24
[1AA	4A	8.e	12cc#
.	.	.	12ee
.	.	.	12gg#
.	.	16d	.
.	4e	12c#	12aa
.	.	12e	12ee
.	.	12a	12cc#
.	4f	12f	12dd
.	.	12e	12cc#
.	.	12f	12dd
.	4g#	12d	12ff
.	.	12e	12ee
.	.	12f	12dd
=25	=25	=25	=25
1AA]	4a	8.e	12cc#
.	.	.	12ee
.	.	.	12gg#
.	.	16d	.
.	4e	12c#	12aa
.	.	12e	12ee
.	.	12a	12cc#
.	4f	12f	12dd
.	.	12e	12cc#
.	.	12f	12dd
.	4g#	12d	12ff
.	.	12e	12ee
.	.	12f	12dd
=26	=26	=26	=26
2AA	2.a	8.e	12cc#
.	.	.	12ee
.	.	.	12gg#
.	.	16d	.
.	.	12c#	12aa
.	.	12e	12ee
.	.	12g#	12cc#
2r	.	4a	12a
.	.	.	12b
.	.	.	12a
.	4cc#	4r	12g
.	.	.	12f#
.	.	.	12e
=27	=27	=27	=27
2DD	8dd	4ff#	4d
.	8f#	.	.
.	8dd	4ff#	2.r
.	8f#	.	.
4r	8dd	4ff#	.
.	8f#	.	.
8.A	8dd	4ff#	.
.	8f#	.	.
16F#	.	.	.
=28	=28	=28	=28
4D	8dd	4ff#	4r
.	8f#	.	.
4r	8dd	4ff#	8.aa
.	8f#	.	.
.	.	.	16ff#
4r	8dd	4ff#	4dd
.	8f#	.	.
8.d	8dd	4ff#	4r
.	8f#	.	.
16c#	.	.	.
=29	=29	=29	=29
8B	8dd	8ff#	1r
8r	8f#	8d	.
8.B	8dd	8ff#	.
.	8f#	8d	.
16A#	.	.	.
8B	8dd	8ff#	.
8r	8f#	8d	.
8.B	8dd	8ff#	.
.	8f#	8d	.
16A#	.	.	.
=30	=30	=30	=30
4B	8dd	8ff#	4r
.	8f#	8d	.
4r	8dd	8ff#	8.bb
.	8f#	8d	.
.	.	.	16ddd
4r	8dd	8ff#	4fff#
.	8f#	8d	.
8.B	8dd	8ff#	4r
.	8f#	8d	.
16A	.	.	.
=31	=31	=31	=31
8G#	8dd	8ee	1r
8r	8b	8d	.
8.G#	8dd	8ee	.
.	8b	8d	.
16F#	.	.	.
8G#	8dd	8ee	.
8r	8b	8d	.
8.G#	8dd	8ee	.
.	8b	8d	.
16F#	.	.	.
=32	=32	=32	=32
4G#	8dd	8ee	4r
.	8b	8d	.
4r	8dd	8ee	8.bb
.	8b	8d	.
.	.	.	16gg#
4r	8dd	8ee	8ddd
.	8b	8e	8r
4G#	8dd	8ee	8.ee
.	8e	8b	.
.	.	.	16dd
=33	=33	=33	=33
4A	4e	8cc#	8cc#
.	.	8a	8r
2.r	8c#	8e	8.gg
.	8e	8a	.
.	.	.	16ff#
.	8c#	8cc#	8ee
.	8e	8a	8r
.	8c#	8e	8.bb
.	8e	8a	.
.	.	.	16aa
=34	=34	=34	=34
4A	8c#	8e	8gg
.	8e	8a	8r
2.r	8c#	8e	8.gg
.	8e	8a	.
.	.	.	16ff#
.	8c#	8e	8gg
.	8e	8a	8r
.	8c#	8e	8.gg
.	8e	8a	.
.	.	.	16ff#
=35	=35	=35	=35
4r	8c#	8e	4gg
.	8e	8a	.
12G	8c#	8e	2r
12E	.	.	.
.	8e	8a	.
12C#	.	.	.
4AA	8c#	8e	.
.	8e	8a	.
4r	8c#	8e	8.bb-
.	8e	8a	.
.	.	.	16aa
=36	=36	=36	=36
1r	8c#	8e	8gg
.	8e	8b-	8r
.	8c#	8e	8.gg
.	8e	8b-	.
.	.	.	16ff#
.	8c#	8e	8gg
.	8e	8b-	8r
.	8c#	8e	8.gg
.	8e	8b-	.
.	.	.	16ff#
=37	=37	=37	=37
4AA	8c#	8e	8gg
.	8a	8c#	8r
4r	8c#	8e	8.gg
.	8a	8c#	.
.	.	.	16aa
4D	8d	8d	8ff#
.	8a	8a	8r
4r	8d	8f#	8.ff#
.	8a	8d	.
.	.	.	16gg
=38	=38	=38	=38
4GG	4g	8b	4ee
.	.	8g	.
4r	4G	8e	4bb
.	.	8b	.
4r	4A	8g	4cc#
.	.	8e	.
4AA	4G	8c#	4ee
.	.	8cc#	.
=39	=39	=39	=39
2D	12F#	2dd	4dd
.	12A	.	.
.	12c#	.	.
.	12d	.	2.r
.	12A	.	.
.	12F#	.	.
4E	12G	4cc#	.
.	12A	.	.
.	12G	.	.
4D	12F#	4dd	.
.	12G	.	.
.	12F#	.	.
=40	=40	=40	=40
4C#	12E	4ee	1r
.	12F#	.	.
.	12E	.	.
4BB	12D	4ff#	.
.	12E	.	.
.	12D	.	.
4AA	12C#	4gg	.
.	12E	.	.
.	12A	.	.
4AA	12c#	4cc#	.
.	12e	.	.
.	12g	.	.
=41	=41	=41	=41
4DD	4f#	12dd	2ddd
.	.	12a	.
.	.	12cc#	.
2.r	4d	12dd	.
.	.	12a	.
.	.	12f#	.
.	4e	12g	4ccc#
.	.	12a	.
.	.	12g	.
.	4d	12f#	4ddd
.	.	12g	.
.	.	12f#	.
=42	=42	=42	=42
2.r	4c#	12e	4eee
.	.	12f#	.
.	.	12e	.
.	4B	12d	4fff#
.	.	12e	.
.	.	12d	.
.	4A	12c#	4ggg
.	.	12e	.
.	.	12a	.
4AA	4e	12cc#	4ccc#
.	.	12ee	.
.	.	12gg	.
=43	=43	=43	=43
2BB	2d	2ff#	2ddd
2F#	2A#	2ee	2ccc#
=44	=44	=44	=44
2G	2B	2dd	[2bb
2G#	2e#	[2dd	8bb]
.	.	.	8ccc#
.	.	.	8ddd
.	.	.	8bb
=45	=45	=45	=45
2A	2f#	2dd]	2.aa
2AA	4e	2cc#	.
.	4g	.	8gg
.	.	.	8ee
=46	=46	=46	=46
4D	4f#	4dd	12dd
.	.	.	12ff#
.	.	.	12aa
4r	4r	4r	12ddd
.	.	.	12aa
.	.	.	12ff#
4r	4r	4r	12dd
.	.	.	12ddd
.	.	.	12bb
4d	[4e	4b	12gg#
.	.	.	12ee
.	.	.	12gg#
=47	=47	=47	=47
4c#	4e]	4a	12aa
.	.	.	12ee
.	.	.	12cc#
4r	4r	4r	12a
.	.	.	12cc#
.	.	.	12ee
4r	4r	4r	12aa
.	.	.	12a
.	.	.	12aa
4C#	[4a	4e	12gg
.	.	.	12ff#
.	.	.	12ee
=48	=48	=48	=48
4D	4a]	4f#	12dd
.	.	.	12ff#
.	.	.	12aa
4r	4r	4r	12ddd
.	.	.	12aa
.	.	.	12ff#
4r	4r	4r	12dd
.	.	.	12ddd
.	.	.	12bb
4d	[4e	4b	12gg#
.	.	.	12ee
.	.	.	12gg#
=49	=49	=49	=49
4c#	4e]	4a	12aa
.	.	.	12ccc#
.	.	.	12eee
4r	4r	4r	12ccc#
.	.	.	12aa
.	.	.	12ee
4r	4r	4r	12a
.	.	.	12aa
.	.	.	12aa
4C#	[4a	4e	12gg
.	.	.	12ff#
.	.	.	12ee
=50	=50	=50	=50
4D	4a]	8f#	12dd
.	.	.	12ff#
.	.	8r	.
.	.	.	12bb
2.r	2.r	8dd	12gg#
.	.	.	12ee
.	.	8r	.
.	.	.	12gg#
.	.	8cc#	12aa
.	.	.	12a
.	.	8r	.
.	.	.	12aa
.	.	8cc	12ff#
.	.	.	12dd
.	.	8r	.
.	.	.	12ff#
=51	=51	=51	=51
1r	1r	8b	12gg
.	.	.	12dd
.	.	8r	.
.	.	.	12bb
.	.	8dd	12gg#
.	.	.	12ee
.	.	8r	.
.	.	.	12gg#
.	.	8cc#	12aa
.	.	.	12a
.	.	8r	.
.	.	.	12aa
.	.	8cc	12ff#
.	.	.	12dd
.	.	8r	.
.	.	.	12ff#
=52	=52	=52	=52
1r	1r	8b	12gg
.	.	.	12dd
.	.	8r	.
.	.	.	12bb
.	.	8dd	12gg#
.	.	.	12ee
.	.	8r	.
.	.	.	12gg#
.	.	8cc#	12aa
.	.	.	12a
.	.	8r	.
.	.	.	12aa
.	.	8cc	12ff#
.	.	.	12dd
.	.	8r	.
.	.	.	12ff#
=53	=53	=53	=53
1r	1r	8b	12gg
.	.	.	12bb
.	.	8r	.
.	.	.	12gg
.	.	8a	12ff#
.	.	.	12aa
.	.	8r	.
.	.	.	12ff#
.	.	8g	12ee
.	.	.	12gg
.	.	8r	.
.	.	.	12ee
.	.	8f#	12dd
.	.	.	12ff#
.	.	8r	.
.	.	.	12dd
=54	=54	=54	=54
1r	1r	8e	12cc#
.	.	.	12ee
.	.	8r	.
.	.	.	12cc#
.	.	8d	12b
.	.	.	12dd
.	.	8r	.
.	.	.	12b
.	.	8c#	12a
.	.	.	12b
.	.	8r	.
.	.	.	12a
.	.	8c#	12g
.	.	.	12f#
.	.	8r	.
.	.	.	12e
=55	=55	=55	=55
12DD	2.F#	4d	4d
12FF#	.	.	.
12AA	.	.	.
12D	.	4f#	4r
12F#	.	.	.
12A	.	.	.
4d	.	4d	12d
.	.	.	12f#
.	.	.	12a
4r	8A	4f#	12dd
.	.	.	12ff#
.	8d	.	.
.	.	.	12aa
=56	=56	=56	=56
12GG	[1d	4g	4bb
12BB	.	.	.
12D	.	.	.
12G	.	4b	4r
12B	.	.	.
12d	.	.	.
4g	.	4g	12g
.	.	.	12b
.	.	.	12dd
4GG	.	8.bb	12gg
.	.	.	12bb
.	.	.	12ddd
.	.	16gg	.
=57	=57	=57	=57
4AA	4d]	4ff#	4aa
4BB	4dd	4dd	4ff#
4GG	4b	4ee	4gg
4AA	4e	4g	4cc#
=58	=58	=58	=58
12DD	12f#	4f#	4dd
12FF#	12dd	.	.
12AA	12a	.	.
12D	12f#	4r	4r
12F#	12d	.	.
12A	12A	.	.
4d	4F#	12ddd	12d
.	.	12aa	12f#
.	.	12ff#	12a
4r	4r	12dd	12dd
.	.	12a	12ff#
.	.	12f#	12aa
=59	=59	=59	=59
12GG	12g	4d	4bb
12BB	12dd	.	.
12D	12b	.	.
12G	12g	4r	4r
12B	12d	.	.
12d	12B	.	.
4g	4G	12ddd	12g
.	.	12bb	12b
.	.	12gg	12dd
4GG	4r	12dd	12gg
.	.	12b	12bb
.	.	12g	12ddd
=60	=60	=60	=60
4AA	4r	4f#	4aa
4BB	4d	4dd	4ff#
4GG	4B	4ee	4gg
4AA	4c#	4gg	4ee
=61	=61	=61	=61
8.FF#	8.d	8.ff#	8.aa
16FF#	16d	16ff#	16aa
8.BB	8.dd	8.dd	8.ff#
16BB	16dd	16dd	16ff#
8.GG	8.b	8.ee	8.gg
16GG	16b	16ee	16gg
8.AA	8.e	8.g	8.cc#
16AA	16e	16g	16cc#
=62	=62	=62	=62
4D	4f#	4f#	4dd
4r	4r	4r	4r
4DD	4f# 4D 4A	4ff# 4a 4d	4ff# 4ddd
4r	4r	4r	4r
=63	=63	=63	=63
4BB	4B	4B	4B
4r	4r	4r	4r
4B	4f#	4ff# 4b	4bb
4r	4r	4r	4r
=64	=64	=64	=64
1CC 1C	1C	1c	2.c
.	.	.	8.gg
.	.	.	16ee
=65	=65	=65	=65
4c	4e	4g	4cc
8.C	4e	4g	2r
16BB	.	.	.
4C	4e	4g	.
4r	4e	4g	8.ccc
.	.	.	16bb
=66	=66	=66	=66
4c#	4e	4g	8aa
.	.	.	8r
4c#	4e	4g	8.aa
.	.	.	16gg#
4c#	4e	4g	8aa
.	.	.	8r
4AA	4c#	4g	8.aa
.	.	.	16gg#
=67	=67	=67	=67
4D	4A	4f#	4aa
8.DD	8.f#	4a	2r
16CC#	16e#	.	.
4DD	4f#	4a	.
4r	4f#	4a	8.ddd
.	.	.	16ccc
=68	=68	=68	=68
4d#	4f#	4a	8bb
.	.	.	8r
4d#	4f#	4a	8.bb
.	.	.	16aa#
4d#	4f#	4a	8bb
.	.	.	8r
4BB	4d#	4a	8.bb
.	.	.	16bb
=69	=69	=69	=69
4E	4B	4g	12bb
.	.	.	12gg
.	.	.	12ee
4r	4r	4r	12b
.	.	.	12ee
.	.	.	12gg
4r	4r	4r	12bb
.	.	.	12gg
.	.	.	12ee
4B	4f#	12d#	12aa
.	.	12f#	12ff#
.	.	12a	12dd#
=70	=70	=70	=70
4E	4g	4g	12ee
.	.	.	12dd#
.	.	.	12ee
2.r	2.r	4d#	12ff#
.	.	.	12ee
.	.	.	12ff#
.	.	4e	12gg
.	.	.	12ff#
.	.	.	12gg
.	.	4f#	12aa
.	.	.	12gg
.	.	.	12aa
=71	=71	=71	=71
2.r	2.r	4g	12bb
.	.	.	12gg
.	.	.	12ee
.	.	4r	12b
.	.	.	12ee
.	.	.	12gg
.	.	4r	12bb
.	.	.	12gg
.	.	.	12ee
4BB	4f#	12d#	12aa
.	.	12f#	12ff#
.	.	12a	12dd#
=72	=72	=72	=72
4E	4B	4g	12gg
.	.	.	12ee
.	.	.	12b
4r	4r	4r	12g
.	.	.	12b
.	.	.	12ee
4r	4r	4r	12gg
.	.	.	12ee
.	.	.	12cc
4GG	12B	4dd	12ff
.	12d	.	12dd
.	12f	.	12b
=73	=73	=73	=73
4C	4e	4g	12ee
.	.	.	12cc
.	.	.	12g
4r	4r	4r	12e
.	.	.	12g
.	.	.	12cc
4r	4r	4r	12ee
.	.	.	12cc
.	.	.	12a
4EE	12G#	4b	12dd
.	12B	.	12b
.	12d	.	12g#
=74	=74	=74	=74
2.AA	4c	4e	12cc
.	.	.	12a
.	.	.	12e
.	4r	4r	12c
.	.	.	12e
.	.	.	12a
.	4r	4r	12cc
.	.	.	12b
.	.	.	12a
4AA#	4A#	12e	12g
.	.	12f#	12f#
.	.	12g	12e
=75	=75	=75	=75
4BB	4B	4f#	4d#
4A	4c	4f#	4dd#
4A	4c	4f#	4dd#
4A	4c	4f#	4dd#
=76	=76	=76	=76
4G	4B	4g	4ee
4d#	4a	4b	4ff#
4d#	4a	4b	4ff#
4d#	4a	4b	4ff#
=77	=77	=77	=77
4e	4g	4b	4gg
2.r	2.r	4ee	4eee
.	.	4ee	4eee
.	.	4ee	4eee
=78	=78	=78	=78
4r	4r	4ee	2.eee
4A	4c	4f#	.
4A	4c	4f#	.
4A	4c	4f#	16ddd
.	.	.	16ccc
.	.	.	16bb
.	.	.	16aa
=79	=79	=79	=79
4r	4r	4r	2.eee
4c	4f#	4a	.
4c	4f#	4a	.
4c	4f#	4a	16ddd
.	.	.	16ccc
.	.	.	16bb
.	.	.	16aa
=80	=80	=80	=80
4r	4r	4r	2.eee
4A	4c	4f#	.
4B	4d	4g#	.
4c	4e	4a	16ddd
.	.	.	16ccc
.	.	.	16bb
.	.	.	16aa
=81	=81	=81	=81
2B	2e	4b	4gg
.	.	4g	4bb
2BB	4d#	4f#	4aa
.	4dd#	4a	4ff#
=82	=82	=82	=82
4E	4ee	12g	4.ee
.	.	12b	.
.	.	12dd#	.
2.r	4g	12ee	.
.	.	12b	.
.	.	.	16ff#
.	.	12g	.
.	.	.	16ee
.	4f#	12a	4dd#
.	.	12b	.
.	.	12a	.
.	4e	12g	4ee
.	.	12a	.
.	.	12g	.
=83	=83	=83	=83
4BB	4d#	12f#	4ff#
.	.	12g	.
.	.	12f#	.
2.r	4c#	12e	4gg
.	.	12f#	.
.	.	12e	.
.	4B	12d#	4aa
.	.	12f#	.
.	.	12a	.
.	4d#	12cc	4ff#
.	.	12b	.
.	.	12a	.
=84	=84	=84	=84
2EE	2e	12g	2gg
.	.	12b	.
.	.	12dd#	.
.	.	12ee	.
.	.	12b	.
.	.	12g	.
2E	2B 2d	12e	4.gg#
.	.	12g#	.
.	.	12b	.
.	.	12ee	.
.	.	12dd	.
.	.	.	16ff#
.	.	12b	.
.	.	.	16gg#
=85	=85	=85	=85
1AA	12c	4cc	2.aa
.	12e	.	.
.	12g#	.	.
.	12a	4e	.
.	12e	.	.
.	12d	.	.
.	12c#	4g	.
.	12e	.	.
.	12d	.	.
.	12c#	4e	12gg
.	12d	.	12aa
.	12e	.	12gg
=86	=86	=86	=86
1D	4d	4f#	12ff#
.	.	.	12gg
.	.	.	12ff#
.	4e	4g	12ee
.	.	.	12ff#
.	.	.	12ee
.	4f#	4a	12dd
.	.	.	12ee
.	.	.	12dd
.	4a	4f#	12cc
.	.	.	12dd
.	.	.	12cc
=87	=87	=87	=87
2GG	8g	8b	4b 4d
.	8B	8g	.
.	8g	8b	8.dd
.	8B	8g	.
.	.	.	16b
4r	8g	8b	4g
.	8B	8g	.
8.D	8g	8b	4r
.	8B	8g	.
16BB	.	.	.
=88	=88	=88	=88
4GG	8g	8b	4r
.	8B	8g	.
4r	8g	8b	8.dd
.	8B	8g	.
.	.	.	16gg
4r	8g	8b	4bb
.	8B	8g	.
8.G	8g	8b	4r
.	8B	8g	.
16F#	.	.	.
=89	=89	=89	=89
8E	8g	8b	1r
8r	8B	8g	.
8.E	8g	8b	.
.	8B	8g	.
16D#	.	.	.
8E	8g	8b	.
8r	8B	8g	.
8.E	8g	8b	.
.	8B	8g	.
16D#	.	.	.
=90	=90	=90	=90
4E	8g	8b	4r
.	8B	8g	.
4r	8g	8b	8.gg
.	8B	8g	.
.	.	.	16bb
4r	8g	8b	4eee
.	8B	8g	.
8.E	8g	8b	4r
.	8B	8g	.
16D	.	.	.
=91	=91	=91	=91
8C#	8g	8a	1r
8r	8A	8e	.
8.C#	8g	8a	.
.	8A	8e	.
16BB	.	.	.
8C#	8g	8a	.
8r	8A	8e	.
8.C#	8g	8a	.
.	8A	8e	.
16BB	.	.	.
=92	=92	=92	=92
4C#	8g	8a	4r
.	8A	8e	.
4r	8g	8a	8.cc#
.	8A	8e	.
.	.	.	16ee
4r	8g	8a	8aa
.	8A	8e	8r
4C#	8g	8a	8.aa
.	8A	8e	.
.	.	.	16gg
=93	=93	=93	=93
4D	4d	8f	8ff
.	.	8a	8r
2.r	4d	8f	8.ff
.	.	8a	.
.	.	.	16ee
.	4d	8f	8ff
.	.	8a	8r
.	4d	8f	8.ff
.	.	8a	.
.	.	.	16ee
=94	=94	=94	=94
4r	4c	8d#	4ff
.	.	8a	.
8.F	4c	8d#	2r
.	.	8a	.
16E	.	.	.
4F	4c	8d#	.
.	.	8a	.
4r	4c	8d#	8.aa
.	.	8a	.
.	.	.	16gg
=95	=95	=95	=95
1r	4B	8d#	8ff#
.	.	8a	8r
.	4B	8d#	8.ff#
.	.	8a	.
.	.	.	16ee
.	4B	8d#	8ff#
.	.	8a	8r
.	4B	8d#	8.ff#
.	.	8a	.
.	.	.	16ee
=96	=96	=96	=96
4r	4B#	8d#	4ff#
.	.	8a	.
8.F#	4B#	8d#	2r
.	.	8a	.
16E	.	.	.
4F#	4B#	8d#	.
.	.	8a	.
4r	4B#	8d#	8.aa
.	.	8a	.
.	.	.	16gg#
=97	=97	=97	=97
4r	4c#	8f#	4ff#
.	.	8a	.
8.F#	4c#	8f#	2r
.	.	8a	.
16E#	.	.	.
4F#	4c#	8f#	.
.	.	8a	.
4r	4c#	8f#	8.aa
.	.	8a	.
.	.	.	16gg#
=98	=98	=98	=98
4r	4d	8f#	4ff#
.	.	8a	.
8.F#	4d	8f#	2r
.	.	8a	.
16E#	.	.	.
4F#	4d	8f#	.
.	.	8a	.
4r	4d	8f#	8.aa
.	.	8a	.
.	.	.	16gg#
=99	=99	=99	=99
4r	4d	8f#	8ff#
.	.	8b	8r
8.F#	4d	8f#	8.aa
.	.	8b	.
16E#	.	.	16gg#
4F#	4d	8f#	8ff#
.	.	8b	8r
4r	4d	8f#	16aa
.	.	.	16bb
.	.	8b	16aa
.	.	.	16gg#
=100	=100	=100	=100
4r	4d	8f#	8ff#
.	.	8b#	8ff#
8.F#	4d	8f#	16aa
.	.	.	16bb
.	.	8b#	16aa
16E#	.	.	16gg#
4F#	4d	8f#	8ff#
.	.	8b#	8ff#
4F#	4d	8f#	16aa
.	.	.	16gg#
.	.	8b#	16aa
.	.	.	16ff#
=101	=101	=101	=101
4C#	4c#	4cc#	4ee#
4r	8.e#	8.g#	2ccc#
.	16f#	16a	.
4r	4e#	4g#	.
8.C#	4f#	4a	16bb
.	.	.	16aa
.	.	.	16gg#
16BB#	.	.	16ff#
=102	=102	=102	=102
4C#	4c#	4g#	4ee#
4r	8.e#	8.g#	2cc#
.	16f#	16a	.
4r	4e#	4g#	.
8.C#	8.f#	4a	16b
.	.	.	16a
.	.	.	16g#
16BB#	16d#	.	16f#
=103	=103	=103	=103
4C#	4c#	4g#	4e#
4C#	4c#	4c#	4c#
4C#	4c#	4c#	4c#
4C#	4c#	4c#	4c#
=104	=104	=104	=104
2.C#	2.c#	2.c#	2.c#
4BB	4B	4B	4B
=105	=105	=105	=105
4AA	12c#	2a	4a 4e 4A
.	12e	.	.
.	12g#	.	.
4c#	12a	.	2.r
.	12e	.	.
.	12c#	.	.
4B	12d	4g#	.
.	12e	.	.
.	12d	.	.
4A	12c#	4a	.
.	12d	.	.
.	12c#	.	.
=106	=106	=106	=106
4G#	12B	4b	1r
.	12c#	.	.
.	12B	.	.
4F#	12A	4cc#	.
.	12B	.	.
.	12A	.	.
4E	12G#	4dd	.
.	12B	.	.
.	12d	.	.
4EE	12f	4g#	.
.	12e	.	.
.	12d	.	.
=107	=107	=107	=107
4AA	4c	12a	4.aa
.	.	12cc	.
.	.	12ee	.
2.r	4cc	12aa	.
.	.	12ee	.
.	.	.	16bb
.	.	12cc	.
.	.	.	16aa
.	12b	12dd	4gg#
.	12cc	12ee	.
.	12b	12dd	.
.	12a	12cc	4aa
.	12b	12dd	.
.	12a	12cc	.
=108	=108	=108	=108
4E	12g#	12b	4bb
.	12a	12cc	.
.	12g#	12b	.
2.r	12f#	12a	4ccc
.	12g#	12b	.
.	12f#	12a	.
.	4e	12g#	4ddd
.	.	12b	.
.	.	12dd#	.
.	4g#	12ee	4bb
.	.	12gg#	.
.	.	12bb	.
=109	=109	=109	=109
2A	2a	2ee	2ccc
2e	2g#	2dd	2bb
=110	=110	=110	=110
2f	2a	2cc	2aa
2c#	2e	2a	2gg
=111	=111	=111	=111
2d	2f	[1a	2ff
2e	2g	.	2ee
=112	=112	=112	=112
4f	4a	4a]	[1dd#
4F	4A	4cc	.
4F	4B	4b	.
4F	4c	4a	.
=113	=113	=113	=113
[1E	4c	4a	4dd#]
.	4B	4g#	4ee
.	4B	4g#	4ee
.	4B	4g#	4ee
=114	=114	=114	=114
1E]	2B	2g#	2.ee 2.e
.	[2B-	[2g	.
.	.	.	4dd
=115	=115	=115	=115
1AA	4B-]	4g]	2cc# 2e
.	12g	12b-	.
.	12a	12cc	.
.	12g	12b-	.
.	12f	12a	2cc#
.	12g	12b-	.
.	12f	12a	.
.	12e	12g	.
.	12f	12a	.
.	12e	12g	.
=116	=116	=116	=116
12D	4d	4f	2dd 2d
12F	.	.	.
12A	.	.	.
12d	2.r	4a	.
12A	.	.	.
12F	.	.	.
12E	.	12g	4cc#
12F	.	12a	.
12E	.	12g	.
12D	.	12f	4dd
12E	.	12g	.
12D	.	12f	.
=117	=117	=117	=117
12C#	[1a	12e	4ee
12D	.	12f	.
12C#	.	12e	.
12BB	.	12d	4ff
12C#	.	12e	.
12BB	.	12d	.
12AA	.	12c#	4gg
12C#	.	12e	.
12E	.	12a	.
12A	.	12cc#	4ee
12B	.	12dd	.
12c#	.	12ee	.
=118	=118	=118	=118
12d	4a]	4a	2ff
12A	.	.	.
12F	.	.	.
12D	4d 4a	4a	.
12F	.	.	.
12A	.	.	.
12c	4a 4d	4dd	2ff#
12A	.	.	.
12F#	.	.	.
12D	4a 4d	4cc	.
12C	.	.	.
12AA	.	.	.
=119	=119	=119	=119
4GG	4G 4b 4d	12b	4.gg 4.b 4.d
.	.	12dd	.
.	.	12ff#	.
2.r	4b	12gg	.
.	.	12dd	.
.	.	.	16aa
.	.	12b	.
.	.	.	16gg
.	12a	12cc	4ff#
.	12b	12dd	.
.	12a	12cc	.
.	12g	12b	4gg
.	12a	12cc	.
.	12g	12b	.
=120	=120	=120	=120
4D	12f#	12a	4aa
.	12g	12b	.
.	12f#	12a	.
2.r	12e	12g	4bb
.	12f#	12a	.
.	12e	12g	.
.	4d	12f#	4ccc
.	.	12ee	.
.	.	12dd	.
.	8.D	12cc	4ff#
.	.	12b	.
.	.	12a	.
.	16c	.	.
=121	=121	=121	=121
4GG	12B	2g	2gg
.	12d	.	.
.	12f#	.	.
4B	12g	.	.
.	12d	.	.
.	12B	.	.
12A	12c	4f#	2r
12B	12d	.	.
12A	12c	.	.
12G	12B	4g	.
12A	12c	.	.
12G	12B	.	.
=122	=122	=122	=122
12F#	12A	4a	1r
12G	12B	.	.
12F#	12A	.	.
12E	12G	4b	.
12F#	12A	.	.
12E	12G	.	.
4D	12F#	4cc	.
.	12A	.	.
.	12d	.	.
4FF#	12D	4a	.
.	12A	.	.
.	12c	.	.
=123	=123	=123	=123
2GG	12B	2b	1r
.	12d	.	.
.	12f#	.	.
.	12g	.	.
.	12b	.	.
.	12a	.	.
2E	12g	4.cc#	.
.	12f#	.	.
.	12g	.	.
.	12e	.	.
.	12a	.	.
.	.	16b	.
.	12g	.	.
.	.	16cc#	.
=124	=124	=124	=124
12D	2.f#	2.dd	4r
12F#	.	.	.
12A	.	.	.
12d	.	.	2ddd
12A	.	.	.
12F#	.	.	.
12D	.	.	.
12F#	.	.	.
12A	.	.	.
12D	4g	4cc#	8bb-
12G	.	.	.
.	.	.	8gg
12B-	.	.	.
=125	=125	=125	=125
12D	2.f#	2.dd	4ddd
12F#	.	.	.
12A	.	.	.
12d	.	.	2ddd
12A	.	.	.
12F#	.	.	.
12D	.	.	.
12F#	.	.	.
12A	.	.	.
12D	4g	4cc#	8bb-
12G	.	.	.
.	.	.	8gg
12B-	.	.	.
=126	=126	=126	=126
12D	2.f#	4dd	4dd
12F#	.	.	.
12A	.	.	.
12d	.	2d	2dd
12A	.	.	.
12F#	.	.	.
12D	.	.	.
12F#	.	.	.
12A	.	.	.
12D	4g	4c#	8b-
12G	.	.	.
.	.	.	8g
12B-	.	.	.
=127	=127	=127	=127
12D	12f#	12d	12d
12F#	12a	12f#	12f#
12A	12cc#	12a	12a
12d	12dd	12dd	12dd
12A	12a	12a	12a
12F#	12f#	12f#	12f#
12D	12d	12d	12d
12E	12e	12e	12e
12D	12d	12d	12d
12C	12c	12c	12c
12BB	12B	12B	12B
12AA	12A	12A	12A
=128	=128	=128	=128
4GG	4G	4G	2G 2g
4G	4B	4d	.
4G	4B	4d	4r
4G	4B	4d	8.dd
.	.	.	16b
=129	=129	=129	=129
4G	4B	4d	4g
8.GG	4B	4d	2r
16FF#	.	.	.
4GG	4B	4d	.
4GG	4B	4d	8.gg
.	.	.	16ff#
=130	=130	=130	=130
4GG	4c	4e	8ee
.	.	.	8r
4G	4c	4e	8.ee
.	.	.	16dd#
4G	4c	4e	8ee
.	.	.	8r
4G	4c	4e	8.ee
.	.	.	16dd#
=131	=131	=131	=131
4G	4c 4e	4e	4ee
4G	4c 4e	8.a	2.r
.	.	16g#	.
4G	4e 4c	4a	.
4G	4e 4c	8.a	.
.	.	16g#	.
=132	=132	=132	=132
4FF#	4D 4c	4a	4aa 4cc 4d
4F#	4A	4c	2r
4F#	4A	4c	.
4F#	4A	4c	8.ee
.	.	.	16cc
=133	=133	=133	=133
4F#	4A 4F#	4c	4a
8.DD	4F# 4A	4c	2r
16CC#	.	.	.
4DD	4A 4F#	4c	.
4F#	4A	4c	8.aa
.	.	.	16ff#
=134	=134	=134	=134
4F#	4A	4c	8dd
.	.	.	8r
4F#	4A	4c	8.dd
.	.	.	16cc#
4F#	4A	4c	8dd
.	.	.	8r
4F#	4A	4c	8.dd
.	.	.	16cc#
=135	=135	=135	=135
4F#	4A	4c	4dd
4F#	4A	8.c	2r
.	.	16B	.
4F#	4A	4c	.
4f#	8.a	4cc	8.ddd
.	16dd	.	16aa
=136	=136	=136	=136
4g	4dd	4b	4bb
4r	4r	4gg	4bb
4r	4r	4gg	4bb
4d#	8.f#	4a	8.bb
.	16b	.	16ff#
=137	=137	=137	=137
4e	4b	4g	4gg
4r	4r	4ee	4gg
4r	4r	4ee	4gg
4B	8.d	[4g	8.ff
.	16g	.	16dd#
=138	=138	=138	=138
4c	4g	4g]	4ee
2.r	2.r	4ee	4gg
.	.	4ee	4gg
.	.	4ee	4gg
=139	=139	=139	=139
4r	4r	2.ee	2.gg
4AA#	4A#	.	.
4BB	4B	.	.
4C	4c	16dd	16ff#
.	.	16cc	16ee
.	.	16b	16dd
.	.	16a	16cc
=140	=140	=140	=140
1D	2.d	4g	4b
.	.	4b	4dd
.	.	4a	4cc
.	4f#	4c	4a
=141	=141	=141	=141
4E	4g	4B	4g
2.r	4g	4bb	2.r
.	4g	4bb	.
.	4g	4bb	.
=142	=142	=142	=142
4r	2.g	2.bb	1r
4d#	.	.	.
4e	.	.	.
4c#	4e	16aa	.
.	.	16gg	.
.	.	16ff#	.
.	.	16ee	.
=143	=143	=143	=143
4d	4f#	4dd	1r
4f#	4a	4cc	.
4f#	4a	4cc	.
4f#	4a	4cc	.
=144	=144	=144	=144
[1f#	[1a	[1cc	4r
.	.	.	4dd#
.	.	.	4dd#
.	.	.	4dd#
=145	=145	=145	=145
4f#]	4a]	4cc]	2dd#
4f	4a	4cc	.
4e	4a	4cc	4ee
4e-	4g	4cc	24ff#
.	.	.	24gg
.	.	.	24aa
.	.	.	24bb
.	.	.	24ccc
.	.	.	24ddd
=146	=146	=146	=146
1d	1f#	2cc	2eee
.	.	4b	4ddd
.	.	4a	4ccc
=147	=147	=147	=147
4e	4g	8g	4bb
.	.	8b	.
4e	4g	8gg	4bb
.	.	8ff#	.
4c	4a	4ee	8aa
.	.	.	8bb
4c	4a	4ee	8ccc
.	.	.	8aa
=148	=148	=148	=148
2d	4b	4dd	2.gg
.	4a#	4cc#	.
2D	4b	4dd	.
.	4a	4cc	8aa
.	.	.	8ff#
=149	=149	=149	=149
4G	4g	4b	12gg
.	.	.	12dd
.	.	.	12b
4r	4r	4r	12g
.	.	.	12b
.	.	.	12dd
4r	4r	4r	12gg
.	.	.	12ff#
.	.	.	12ee
4G	4e	4a	12ee
.	.	.	12dd
.	.	.	12cc#
=150	=150	=150	=150
4F#	4a	4d	12dd
.	.	.	12a
.	.	.	12f#
4r	4r	4r	12d
.	.	.	12f#
.	.	.	12a
4r	4r	4r	12dd
.	.	.	12ee
.	.	.	12dd
4F#	[4d	4a	12cc
.	.	.	12b
.	.	.	12a
=151	=151	=151	=151
4G	4d]	4b	12g
.	.	.	12b
.	.	.	12dd
4r	4r	4r	12gg
.	.	.	12dd
.	.	.	12b
4r	4r	4r	12g
.	.	.	12b
.	.	.	12ee
4G	4e	[4a	12cc#
.	.	.	12a
.	.	.	12cc#
=152	=152	=152	=152
4F#	4f#	4a]	12dd
.	.	.	12a
.	.	.	12f#
4r	4r	4f#	12d
.	.	.	12f#
.	.	.	12a
4r	4r	4d	12dd
.	.	.	12ee
.	.	.	12dd
4F#	[4d	4a	12cc
.	.	.	12b
.	.	.	12a
=153	=153	=153	=153
4G	4d]	4b	12g
.	.	.	12b
.	.	.	12ee
2.r	2a	4g	12cc#
.	.	.	12a
.	.	.	12cc#
.	.	4f#	12dd
.	.	.	12aa
.	.	.	12ff#
.	[4b	4a	12dd#
.	.	.	12b
.	.	.	12dd#
=154	=154	=154	=154
2.r	4b]	4g	12ee
.	.	.	12ff#
.	.	.	12gg
.	8.a	4d#	12ff#
.	.	.	12bb
.	.	.	12aa
.	16f#	.	.
.	4g	4e	12gg
.	.	.	12ee
.	.	.	12bb
4E	4b	4dd	12gg#
.	.	.	12ee
.	.	.	12bb
=155	=155	=155	=155
4A	4e	4cc	12aa
.	.	.	12ee
.	.	.	12ccc
4G#	8.dd	2ee	12bb
.	.	.	12ee
.	.	.	12ddd
.	16b	.	.
4A	4cc	.	12ccc
.	.	.	12a
.	.	.	12ccc
4G	4ee	[4a	12ccc#
.	.	.	12a
.	.	.	12ccc#
=156	=156	=156	=156
4F#	4a	4a]	12ddd
.	.	.	12aa
.	.	.	12ff#
4r	4r	4dd	12dd
.	.	.	12ff#
.	.	.	12aa
4r	4r	4f#	12ddd
.	.	.	12dd
.	.	.	12ddd
4F#	[4d	12a	12ccc
.	.	12b	12bb
.	.	12cc	12aa
=157	=157	=157	=157
4G	4d]	8b	12bb
.	.	.	12dd
.	.	8r	.
.	.	.	12eee
2.r	2.r	8gg	12ccc#
.	.	.	12aa
.	.	8r	.
.	.	.	12ccc#
.	.	8ff#	12ddd
.	.	.	12dd
.	.	8r	.
.	.	.	12ddd
.	.	8ff	12bb
.	.	.	12gg
.	.	8r	.
.	.	.	12bb
=158	=158	=158	=158
1r	1r	8ee	12ccc
.	.	.	12ee
.	.	8r	.
.	.	.	12eee
.	.	8gg	12ccc#
.	.	.	12aa
.	.	8r	.
.	.	.	12ccc#
.	.	8ff#	12ddd
.	.	.	12dd
.	.	8r	.
.	.	.	12ddd
.	.	8ff	12bb
.	.	.	12gg
.	.	8r	.
.	.	.	12bb
=159	=159	=159	=159
1r	1r	8ee	12ccc
.	.	.	12ee
.	.	8r	.
.	.	.	12eee
.	.	8gg	12ccc#
.	.	.	12aa
.	.	8r	.
.	.	.	12ccc#
.	.	8ff#	12ddd
.	.	.	12dd
.	.	8r	.
.	.	.	12ddd
.	.	8ff	12bb
.	.	.	12gg
.	.	8r	.
.	.	.	12bb
=160	=160	=160	=160
1r	1r	8ee	12ccc
.	.	.	12cc
.	.	8r	.
.	.	.	12cc
.	.	8dd	12bb
.	.	.	12b
.	.	8r	.
.	.	.	12b
.	.	8cc	12aa
.	.	.	12a
.	.	8r	.
.	.	.	12a
.	.	8b	12gg
.	.	.	12bb
.	.	8r	.
.	.	.	12gg
=161	=161	=161	=161
1r	1r	8a	12ff#
.	.	.	12aa
.	.	8r	.
.	.	.	12ff#
.	.	8g	12ee
.	.	.	12gg
.	.	8r	.
.	.	.	12ee
.	.	8f#	12dd
.	.	.	12ee
.	.	8r	.
.	.	.	12dd
.	.	8f#	12cc
.	.	.	12b
.	.	8r	.
.	.	.	12a
=162	=162	=162	=162
12GG	1d 1G	4g	4b
12BB	.	.	.
12D	.	.	.
12G	.	2b	4r
12B	.	.	.
12d	.	.	.
4g	.	.	12g
.	.	.	12b
.	.	.	12dd
4r	.	4b	12gg
.	.	.	12bb
.	.	.	12ddd
=163	=163	=163	=163
12CC	1e 1G	1cc	4ee
12EE	.	.	.
12GG	.	.	.
12C	.	.	4r
12E	.	.	.
12G	.	.	.
4c	.	.	12ee
.	.	.	12gg
.	.	.	12bb
4r	.	.	12ccc
.	.	.	12gg
.	.	.	12eee
=164	=164	=164	=164
4r	4G 4g	4b	4ddd
4E	4G	4gg	8.bb
.	.	.	32aa
.	.	.	32bb
4C	4A	4ee	4ccc
4D	4A	4cc	8.ff#
.	.	.	32ee
.	.	.	32ff#
=165	=165	=165	=165
12GG	4B	12gg	4gg
12BB	.	12dd	.
12D	.	12b	.
12G	4r	12g	4r
12B	.	12d	.
12d	.	12B	.
4g	12B	4G	12ddd
.	12d	.	12bb
.	12f#	.	12gg
4r	12g	4r	12dd
.	12d	.	12b
.	12b	.	12g
=166	=166	=166	=166
12DD	4cc	12aa	4f#
12FF#	.	12ff#	.
12AA	.	12dd	.
12D	4r	12cc	4r
12F#	.	12a	.
12A	.	12f#	.
4F#	12A	4d	12ccc
.	12c	.	12aa
.	12d	.	12ff#
4r	12f#	4r	12dd
.	12a	.	12cc
.	12cc	.	12a
=167	=167	=167	=167
4G	4b	4r	4b
4E	4g	4b	8.gg
.	.	.	32ff#
.	.	.	32gg
4C	4e	4cc	4aa
4D	4c	4a	8.ff#
.	.	.	32ee
.	.	.	32ff#
=168	=168	=168	=168
4GG	4B	4b	4gg
8.GG	8.B	8.d	2r
16FF#	16c	16e	.
4GG	4B	4d	.
4GG	4B	4d	8.gg
.	.	.	16ff#
=169	=169	=169	=169
4GG	4c	4e	8ee
.	.	.	8r
4GG	4c	4e	8.ee
.	.	.	16dd#
4GG	4c	4e	8ee
.	.	.	8r
4GG	4c	4e	8.ee
.	.	.	16dd#
=170	=170	=170	=170
4GG	4c	4e	4ee
4GG	8.c	8.e	2r
.	16B	16f	.
4GG	4c	4e	.
4GG	4c	4e	8.ee
.	.	.	16dd
=171	=171	=171	=171
4GG	4A	4f#	8cc
.	.	.	8r
4GG	4G 4d	4f#	8.cc
.	.	.	16b
4GG	4d 4G	4f#	8cc
.	.	.	8r
4GG	4d 4G	4f#	8.cc
.	.	.	16dd
=172	=172	=172	=172
4GG	4B 4d	4g	8b
.	.	.	2r
8.GG	8.B	8.d	.
16FF#	16c	16e	.
4GG	4B	4d	.
.	.	.	8r
4G	4B	4d	8.g
.	.	.	16f#
=173	=173	=173	=173
4G#	4B	4d	8e
.	.	.	8r
4G#	4B	4d	8.e
.	.	.	16d#
4G#	4B	4d	8e
.	.	.	8r
4G#	4B	4d	8.e
.	.	.	16f#
=174	=174	=174	=174
4A	4A	4c	4e
4A	4A	4c	2ee
4A	4A	4c	.
4G	4A	4c	8e
.	.	.	8e-
=175	=175	=175	=175
4F#	4A	4c	8d
.	.	.	8r
4F#	4A	4c	8.d
.	.	.	16c#
4F#	4A	4c	4d
4F#	4A	4c	8.d
.	.	.	16e
=176	=176	=176	=176
4G	4B	4B	4d
4G	4B	4B	2dd
4G	4B	4B	.
4G	4B	8.d	8.gg
.	.	16g	16ff#
=177	=177	=177	=177
4c	4c	4g	8ee
.	.	.	8r
4c	4e	4g#	8.ee
.	.	.	16dd#
4c	4e	4g#	4ee
4c	4e	4g#	8.ee
.	.	.	16ff#
=178	=178	=178	=178
4c	4e	4a	4ee
4c	4e	4a	2eee
4c	4e	4a	.
4c	4f#	4a	16ddd
.	.	.	16ccc
.	.	.	16bb
.	.	.	16aa
=179	=179	=179	=179
4B	4g	4g	4ddd
4e	4g	4gg	4bb
4c	4a	4ee	4ccc
4d	4f#	8.cc	4aa
.	.	16a	.
=180	=180	=180	=180
4B	4d	4G 4g	12ddd
.	.	.	12bb
.	.	.	12gg
4r	4r	4r	12dd
.	.	.	12ddd
.	.	.	12bb
4F#	4d	4a	12ccc
.	.	.	12aa
.	.	.	12ff#
4r	4r	4r	12dd
.	.	.	12ee
.	.	.	12cc
=181	=181	=181	=181
4G	4d	4b	12b
.	.	.	12dd
.	.	.	12gg
4C	8.e	4cc	12ee
.	.	.	12cc
.	.	.	12g
.	16f#	.	.
4D	4g	4b	12b
.	.	.	12dd
.	.	.	12b
4D	4f#	4a	12cc
.	.	.	12a
.	.	.	12f#
=182	=182	=182	=182
4BB	4g	4g	12dd
.	.	.	12b
.	.	.	12g
4B	2g	4r	12d
.	.	.	12dd
.	.	.	12b
4c	.	12ee	4ee
.	.	12cc	.
.	.	12g	.
4C	[4a	12e	4r
.	.	12ee	.
.	.	12cc	.
=183	=183	=183	=183
4D	4a]	4ff#	12ff#
.	.	.	12dd
.	.	.	12a
4d	2b	4r	12f#
.	.	.	12ff#
.	.	.	12dd
4e	.	12gg	4gg
.	.	12ee	.
.	.	12b	.
4E	[4cc	12g	4r
.	.	12gg	.
.	.	12ee	.
=184	=184	=184	=184
1F#	4cc]	4aa	12ccc
.	.	.	12aa
.	.	.	12ff#
.	2dd	2aa	12dd
.	.	.	12cc
.	.	.	12a
.	.	.	12f#
.	.	.	12a
.	.	.	12dd
.	[4dd	4aa	12ff#
.	.	.	12aa
.	.	.	12ccc
=185	=185	=185	=185
4G	4dd]	4gg	4bb
4e	4b	4b	4gg
4c	4ee	4cc	4aa
4d	8.cc	4a	4ff#
.	16a	.	.
=186	=186	=186	=186
8.B	8.g	8.bb	8.ddd
16B	16g	16bb	16ddd
8.e	8.g	8.gg	8.bb
16e	16g	16gg	16bb
8.c	8.ee	8.aa	8.ccc
16c	16ee	16aa	16ccc
8.d	8.a	8.cc	8.ff#
16d	16a	16cc	16ff#
=187	=187	=187	=187
4G	4b	4b	4gg
4r	4r	4r	4r
4D	4A 4f#	4d 4cc	4aa 4dd
4r	4r	4r	4r
=188	=188	=188	=188
4G	4g 4G	4b 4d	4dd 4bb
4r	4r	4r	4r
4D	4d	4cc 4d	4ff# 4a
4r	4r	4r	4r
=189	=189	=189	=189
4GG	4G	4G 4d 4b	4gg 4b
2.r	2.r	2.r	2.r
==	==	==	==
*-	*-	*-	*-
!!!RWG: This file only contains pitch and duration data.
!!!RWG: Transposing instruments are not transposed.
!!!RWG: Key is interpreted using the Humdrum key tool.
!!!SCA: 
!!!YOR: Trautwein Edition
!!!AGN: chamber; string quartet
!!!AFT: stage1
!!!ENC: F. Bennion
!!!END: 1997/04/15
!!!AST: classical
!!!YEC: Copyright 1994, Center for Computer Assisted Research in the Humanities
!!!YEM: Rights to all derivative electronic formats reserved.
!!!YEM: Refer to licensing agreement for further details.
!!!YEN: United States of America
!!!EED: W.B. Hewlett
!!!KEY: 132469152
!!!EMD: Converted from MuseData to Humdrum Jul 30, 1999, by Bret Aarden using muse2kern.
!!!VTS: 856422188
